docs/assets/images/components/tab.svg

<?xml version="1.0" encoding="UTF-8"?>
<svg width="64px" height="64px" viewBox="0 0 64 64" version="1.1" xmlns="http://www.w3.org/2000/svg" xmlns:xlink="http://www.w3.org/1999/xlink">
    <!-- Generator: Sketch 49 (51002) - http://www.bohemiancoding.com/sketch -->
    <title>icon/component/tab</title>
    <desc>Created with Sketch.</desc>
    <defs></defs>
    <g id="icon/component/tab" stroke="none" stroke-width="1" fill="none" fill-rule="evenodd">
        <g id="Group" transform="translate(4.000000, 11.000000)">
            <g id="Page-1">
                <polygon id="Fill-1" fill="#6DA3F2" points="1 30 28 30 28 1 1 1"></polygon>
                <polygon id="Fill-2" fill="#CADEFF" points="56 30 28 30 28 11 56 28"></polygon>
                <path d="M55,26.5946551 L28,26.5946551 L28,0.539875923 C45.2264234,-0.179958641 54.2264234,-0.179958641 55,0.539875923 C55.7735766,1.25971049 55.7735766,9.94463689 55,26.5946551 Z" id="Fill-2" fill="#EFF5FF"></path>
                <polygon id="Fill-3" fill="#97BDFF" points="1 30 24 30 24 1 1 1"></polygon>
                <g id="Group-8" fill="#457AE6" fill-rule="nonzero">
                    <path d="M54.6048889,28.8537279 L54.6048889,1 L1,1 L1,28.8537279 L54.6048889,28.8537279 Z M54.8271111,30.8537279 L0.777777778,30.8537279 C-0.232155748,30.8537279 -1,29.9904056 -1,28.9798409 L-1,0.873887005 C-1,-0.13667778 -0.232155748,-1 0.777777778,-1 L54.8271111,-1 C55.8370446,-1 56.6048889,-0.13667778 56.6048889,0.873887005 L56.6048889,28.9798409 C56.6048889,29.9904056 55.8370446,30.8537279 54.8271111,30.8537279 Z" id="Stroke-4"></path>
                    <polygon id="Stroke-6" points="28 30.0506257 26 30.0506257 26 -1 28 -1"></polygon>
                </g>
                <path d="M39.625,17.875 L35.8671875,17.875 L35.2109375,20 L32.28125,20 L36.453125,8.625 L39.03125,8.625 L43.234375,20 L40.2890625,20 L39.625,17.875 Z M36.5234375,15.7578125 L38.96875,15.7578125 L37.7421875,11.8125 L36.5234375,15.7578125 Z M48.703125,20 C48.645833,19.8958328 48.5976564,19.7799486 48.5585938,19.6523438 C48.5195311,19.5247389 48.4843752,19.3880216 48.453125,19.2421875 C48.249999,19.4973971 47.9869808,19.7135408 47.6640625,19.890625 C47.3411442,20.0677092 46.9270859,20.15625 46.421875,20.15625 C46.031248,20.15625 45.6627621,20.0937506 45.3164062,19.96875 C44.9700504,19.8437494 44.666668,19.670574 44.40625,19.4492188 C44.145832,19.2278635 43.9388029,18.9609391 43.7851562,18.6484375 C43.6315096,18.3359359 43.5546875,17.9921894 43.5546875,17.6171875 C43.5546875,17.1796853 43.6341138,16.7890642 43.7929688,16.4453125 C43.9518237,16.1015608 44.1940088,15.8111991 44.5195312,15.5742188 C44.8450537,15.3372384 45.2565079,15.1549486 45.7539062,15.0273438 C46.2513046,14.8997389 46.8411424,14.8359375 47.5234375,14.8359375 L48.3359375,14.8359375 L48.3359375,14.390625 C48.3359375,14.0312482 48.2578133,13.7473969 48.1015625,13.5390625 C47.9453117,13.3307281 47.6875018,13.2265625 47.328125,13.2265625 C47.0260402,13.2265625 46.7942716,13.3020826 46.6328125,13.453125 C46.4713534,13.6041674 46.390625,13.8359359 46.390625,14.1484375 L43.7578125,14.1484375 C43.7578125,13.7578105 43.8450512,13.3932309 44.0195312,13.0546875 C44.1940113,12.7161441 44.4427067,12.4244804 44.765625,12.1796875 C45.0885433,11.9348946 45.4778623,11.7421882 45.9335938,11.6015625 C46.3893252,11.4609368 46.8984347,11.390625 47.4609375,11.390625 C47.9661484,11.390625 48.4335916,11.4531244 48.8632812,11.578125 C49.2929709,11.7031256 49.6640609,11.8919258 49.9765625,12.1445312 C50.2890641,12.3971367 50.5338533,12.7122377 50.7109375,13.0898438 C50.8880217,13.4674498 50.9765625,13.9062475 50.9765625,14.40625 L50.9765625,17.8671875 C50.9765625,18.1432305 50.9843749,18.3828115 51,18.5859375 C51.0156251,18.7890635 51.0390623,18.9674471 51.0703125,19.1210938 C51.1015627,19.2747404 51.1393227,19.4114577 51.1835938,19.53125 C51.2278648,19.6510423 51.2786455,19.7630203 51.3359375,19.8671875 L51.3359375,20 L48.703125,20 Z M47.0546875,18.28125 C47.3828141,18.28125 47.6549468,18.2109382 47.8710938,18.0703125 C48.0872407,17.9296868 48.242187,17.7708342 48.3359375,17.59375 L48.3359375,16.2421875 L47.5078125,16.2421875 C47.2630196,16.2421875 47.0559904,16.2760413 46.8867188,16.34375 C46.7174471,16.4114587 46.5820318,16.5026036 46.4804688,16.6171875 C46.3789057,16.7317714 46.3059898,16.8632805 46.2617188,17.0117188 C46.2174477,17.160157 46.1953125,17.3151034 46.1953125,17.4765625 C46.1953125,17.716147 46.2760409,17.9101555 46.4375,18.0585938 C46.5989591,18.207032 46.8046863,18.28125 47.0546875,18.28125 Z" id="Aa" fill="#5590EB"></path>
            </g>
            <ellipse id="Oval-2" fill="#CADEFF" cx="28.5" cy="43" rx="22.5" ry="2"></ellipse>
        </g>
    </g>
</svg>

<svg width="64" height="64" xmlns="http://www.w3.org/2000/svg"><g transform="translate(4 11)" fill="none" fill-rule="evenodd"><path fill="#6DA3F2" d="M1 30h27V1H1z"/><path fill="#CADEFF" d="M56 30H28V11l28 17z"/><path d="M55 26.595H28V.54c17.226-.72 26.226-.72 27 0 .774.72.774 9.405 0 26.055z" fill="#EFF5FF"/><path fill="#97BDFF" d="M1 30h23V1H1z"/><g fill="#457AE6" fill-rule="nonzero"><path d="M54.605 28.854V1H1v27.854h53.605zm.222 2H.777C-.232 30.854-1 29.99-1 28.98V.874C-1-.136-.232-1 .778-1h54.05c1.009 0 1.777.863 1.777 1.874V28.98c0 1.01-.768 1.874-1.778 1.874z"/><path d="M28 30.05h-2V-1h2z"/></g><path d="M39.625 17.875h-3.758L35.211 20h-2.93l4.172-11.375h2.578L43.234 20H40.29l-.664-2.125zm-3.102-2.117h2.446l-1.227-3.945-1.219 3.945zM48.703 20a1.833 1.833 0 0 1-.144-.348 4.937 4.937 0 0 1-.106-.41 2.572 2.572 0 0 1-.789.649c-.323.177-.737.265-1.242.265-.39 0-.76-.062-1.106-.187a2.922 2.922 0 0 1-.91-.52 2.467 2.467 0 0 1-.62-.8 2.305 2.305 0 0 1-.231-1.032c0-.437.08-.828.238-1.172a2.22 2.22 0 0 1 .727-.87c.325-.238.737-.42 1.234-.548.497-.127 1.087-.191 1.77-.191h.812v-.445c0-.36-.078-.644-.234-.852-.157-.208-.414-.312-.774-.312-.302 0-.534.075-.695.226-.162.151-.242.383-.242.695h-2.633c0-.39.087-.755.262-1.093.174-.339.423-.63.746-.875a3.74 3.74 0 0 1 1.168-.578c.455-.141.964-.211 1.527-.211.505 0 .973.062 1.402.187.43.125.801.314 1.114.567.312.252.557.567.734.945.177.377.266.816.266 1.316v3.461c0 .276.007.516.023.719.016.203.04.381.07.535a2.48 2.48 0 0 0 .266.746V20h-2.633zm-1.648-1.719c.328 0 .6-.07.816-.21.216-.141.371-.3.465-.477v-1.352h-.828c-.245 0-.452.034-.621.102-.17.067-.305.159-.407.273a1.032 1.032 0 0 0-.218.395 1.618 1.618 0 0 0-.067.465c0 .24.081.433.242.582a.876.876 0 0 0 .618.222z" fill="#5590EB"/><ellipse fill="#CADEFF" cx="28.5" cy="43" rx="22.5" ry="2"/></g></svg>
